X:1
T:Title
L:1/8
Q:1/4=100
M:4/4
K:D
V:1 treble nm="Church Organ, Staff"
V:1
 EF F2 FE F2 | FF G2 AG F2- | FF G2 GF G2 | BB d2 cB A2 | A2 d2 AB G2- | G2 F6 | F^G A2 AG A2 | %7
w: By~Rev.~R.~F.~Smith * * * * *|||||||
 Bc d2 cB A2- | AA d2 A=c B2 | BB e2 Bd c2 | c2 d2 AG F2 | E2 D6 |] %12
w: |||||

